modules/micon/icons/google.svg

<svg width="1792" height="1792" viewBox="0 0 1792 1792" xmlns="http://www.w3.org/2000/svg"><path d="M896 786h725q12 67 12 128 0 217-91 387.5t-259.5 266.5-386.5 96q-157 0-299-60.5t-245-163.5-163.5-245-60.5-299 60.5-299 163.5-245 245-163.5 299-60.5q300 0 515 201l-209 201q-123-119-306-119-129 0-238.5 65t-173.5 176.5-64 243.5 64 243.5 173.5 176.5 238.5 65q87 0 160-24t120-60 82-82 51.5-87 22.5-78h-436v-264z"/></svg>

<svg width="1792" height="1792" viewBox="0 0 1792 1792" xmlns="http://www.w3.org/2000/svg"><path d="M896 786h725q12 67 12 128 0 217-91 387.5T1282.5 1568 896 1664q-157 0-299-60.5T352 1440t-163.5-245T128 896t60.5-299T352 352t245-163.5T896 128q300 0 515 201l-209 201q-123-119-306-119-129 0-238.5 65T484 652.5 420 896t64 243.5T657.5 1316t238.5 65q87 0 160-24t120-60 82-82 51.5-87 22.5-78H896V786z"/></svg>
